assets/images/ico_tel.svg

<svg width="26" height="26" viewBox="0 0 26 26" fill="none" xmlns="http://www.w3.org/2000/svg">
<path d="M13 0C5.82947 0 0 5.82947 0 13C0 20.1705 5.82947 26 13 26C20.1705 26 26 20.1705 26 13C26 5.82947 20.1705 0 13 0ZM20.1432 17.8168C19.8968 18.4189 19.4589 19.0211 19.1853 19.2947C17.6253 20.8547 13.4379 19.4589 9.98947 16.0105C6.54105 12.5621 5.14526 8.4021 6.70526 6.81474C6.97895 6.54105 7.60842 6.10316 8.18316 5.85684C8.62105 5.66526 9.14105 5.80211 9.44211 6.18526L11.1663 8.37474C11.5221 8.81263 11.4674 9.46947 11.0295 9.85263C10.5916 10.2358 10.2905 10.5095 10.2084 10.5916C9.55158 11.2484 10.5095 12.6442 11.96 14.0947C13.4105 15.5453 14.7789 16.5305 15.4632 15.8463C15.5453 15.7642 15.8189 15.4632 16.2021 15.0253C16.5853 14.5874 17.2147 14.5326 17.68 14.8884L19.8695 16.6126C20.2253 16.8316 20.3347 17.3516 20.1432 17.8168Z" fill="black"/>
</svg>

<svg width="26" height="26" fill="none" xmlns="http://www.w3.org/2000/svg"><path d="M13 0C5.83 0 0 5.83 0 13s5.83 13 13 13 13-5.83 13-13S20.17 0 13 0zm7.143 17.817c-.246.602-.684 1.204-.958 1.478-1.56 1.56-5.747.164-9.196-3.285-3.448-3.448-4.844-7.608-3.284-9.195.274-.274.903-.712 1.478-.958a1.066 1.066 0 011.26.328l1.723 2.19a1.072 1.072 0 01-.136 1.478c-.438.383-.74.656-.822.739-.656.656.301 2.052 1.752 3.503 1.45 1.45 2.819 2.435 3.503 1.751.082-.082.356-.383.74-.82a1.07 1.07 0 011.477-.138l2.19 1.725c.355.219.465.739.273 1.204z" fill="#000"/></svg>
